src/images_karasa_jaga_svg/cmd/32/basicshapes.cube.svg

<svg height="32" viewBox="0 0 32 32" width="32" xmlns="http://www.w3.org/2000/svg" xmlns:xlink="http://www.w3.org/1999/xlink"><linearGradient id="a"><stop offset="0" stop-color="#fff"/><stop offset=".39715832" stop-color="#fff"/><stop offset=".79970485" stop-color="#f1f1f1"/><stop offset=".90234375" stop-color="#eaeaea"/><stop offset="1" stop-color="#dfdfdf"/></linearGradient><linearGradient id="b"><stop offset="0" stop-color="#7c9fcf"/><stop offset=".5" stop-color="#7c9ece"/><stop offset="1" stop-color="#7b9dcf"/></linearGradient><linearGradient id="c" gradientUnits="userSpaceOnUse" x1="8" x2="93.788582" xlink:href="#a" y1="80" y2="81.414215"/><linearGradient id="d" gradientUnits="userSpaceOnUse" x1="116.70711" x2="62.675884" xlink:href="#a" y1="59.535534" y2="59.292892"/><linearGradient id="e" gradientUnits="userSpaceOnUse" x1="4.019531" x2="83.980469" xlink:href="#b" y1="80" y2="80"/><linearGradient id="f" gradientUnits="userSpaceOnUse" x1="80.011719" x2="119.98828" xlink:href="#b" y1="63.999542" y2="63.999542"/><linearGradient id="g" gradientUnits="userSpaceOnUse" x1="7.869126" x2="116.13176" xlink:href="#b" y1="26" y2="26"/><linearGradient id="h" gradientUnits="userSpaceOnUse" x1="7.869126" x2="165.98279" xlink:href="#a" y1="26" y2="28.474874"/><g transform="scale(.25)"><path d="m44 7.8671875c-1.000909.0004403-1.96765.3640959-2.720703 1.0234375l-32.0000001 28c-.8939352.782801-5.3995575 5.030499-5.4706809 6.033301-.1571925 2.216332 5.5652239 1.207594 8.191384 1.208886h72c1.095994-.000257 2.147006-.435837 2.921875-1.210937l28.000005-28c2.60233-2.603449.75916-7.0536618-2.92188-7.0546875zm0 4.1328125h68l-28 28h-72z" fill="url(#g)"/><path d="m44 12h68l-28 28h-72z" fill="url(#h)"/><path d="m115.88281 8.0136719a3.9891601 3.9891601 0 0 0 -2.70312 1.1660156l-32.000002 32.0000005a3.9891601 3.9891601 0 0 0 -1.167969 2.820312v72a3.9891601 3.9891601 0 0 0 6.96875 2.65039l32.000001-35.999999a3.9891601 3.9891601 0 0 0 1.00781-2.650391v-68a3.9891601 3.9891601 0 0 0 -4.10547-3.9863281z" fill="url(#f)"/><path d="m116 12-32 32v71.99998l32-35.99998z" fill="url(#d)"/><path d="m8 40.019531a3.9810931 3.9810931 0 0 0 -3.9804688 3.980469v72a3.9810931 3.9810931 0 0 0 3.9804688 3.98047h72a3.9810931 3.9810931 0 0 0 3.980469-3.98047v-72a3.9810931 3.9810931 0 0 0 -3.980469-3.980469z" fill="url(#e)"/><path d="m7.9999997 43.999999h72.0000023v72.000001h-72.000002z" fill="url(#c)"/></g></svg>

<?xml version="1.0" encoding="UTF-8" standalone="no"?>
<svg
   xmlns:dc="http://purl.org/dc/elements/1.1/"
   xmlns:cc="http://creativecommons.org/ns#"
   xmlns:rdf="http://www.w3.org/1999/02/22-rdf-syntax-ns#"
   xmlns:svg="http://www.w3.org/2000/svg"
   xmlns="http://www.w3.org/2000/svg"
   xmlns:xlink="http://www.w3.org/1999/xlink"
   xmlns:sodipodi="http://sodipodi.sourceforge.net/DTD/sodipodi-0.dtd"
   xmlns:inkscape="http://www.inkscape.org/namespaces/inkscape"
   height="128"
   viewBox="0 0 128 128"
   width="128"
   version="1.1"
   id="svg31"
   sodipodi:docname="basicshapes.cube.svg"
   inkscape:version="0.92.3 (unknown)"
   inkscape:export-filename="/home/rizmut/Dokumen/Rizmut/Github/libreoffice-style-karasa-jaga/build/images_karasa_jaga/cmd/32/basicshapes.cube.png"
   inkscape:export-xdpi="24"
   inkscape:export-ydpi="24">
  <metadata
     id="metadata37">
    <rdf:RDF>
      <cc:Work
         rdf:about="">
        <dc:format>image/svg+xml</dc:format>
        <dc:type
           rdf:resource="http://purl.org/dc/dcmitype/StillImage" />
        <dc:title />
      </cc:Work>
    </rdf:RDF>
  </metadata>
  <defs
     id="defs35">
    <linearGradient
       id="linearGradient3369">
      <stop
         id="stop3372"
         offset="0"
         style="stop-color:#ffffff;stop-opacity:1;" />
      <stop
         style="stop-color:#ffffff;stop-opacity:1;"
         offset="0.39715832"
         id="stop3374" />
      <stop
         style="stop-color:#f1f1f1;stop-opacity:1;"
         offset="0.79970485"
         id="stop3376" />
      <stop
         id="stop3378"
         offset="0.90234375"
         style="stop-color:#eaeaea;stop-opacity:1;" />
      <stop
         id="stop3384"
         offset="1"
         style="stop-color:#dfdfdf;stop-opacity:1;" />
    </linearGradient>
    <linearGradient
       id="linearGradient7422">
      <stop
         style="stop-color:#7c9fcf;stop-opacity:1"
         offset="0"
         id="stop7424" />
      <stop
         id="stop5348"
         offset="0.5"
         style="stop-color:#7c9ece;stop-opacity:1" />
      <stop
         id="stop7426"
         offset="1"
         style="stop-color:#7b9dcf;stop-opacity:1" />
    </linearGradient>
    <linearGradient
       inkscape:collect="always"
       xlink:href="#linearGradient3369"
       id="linearGradient1483"
       x1="7.9999995"
       y1="80"
       x2="93.788582"
       y2="81.414215"
       gradientUnits="userSpaceOnUse" />
    <linearGradient
       inkscape:collect="always"
       xlink:href="#linearGradient3369"
       id="linearGradient1491"
       x1="116.70711"
       y1="59.535534"
       x2="62.675884"
       y2="59.292892"
       gradientUnits="userSpaceOnUse" />
    <linearGradient
       inkscape:collect="always"
       xlink:href="#linearGradient7422"
       id="linearGradient1503"
       x1="4.0195312"
       y1="80"
       x2="83.980469"
       y2="80"
       gradientUnits="userSpaceOnUse" />
    <linearGradient
       inkscape:collect="always"
       xlink:href="#linearGradient7422"
       id="linearGradient1521"
       x1="80.011719"
       y1="63.999542"
       x2="119.98828"
       y2="63.999542"
       gradientUnits="userSpaceOnUse" />
    <linearGradient
       inkscape:collect="always"
       xlink:href="#linearGradient7422"
       id="linearGradient1533"
       x1="7.8691263"
       y1="26"
       x2="116.13176"
       y2="26"
       gradientUnits="userSpaceOnUse" />
    <linearGradient
       inkscape:collect="always"
       xlink:href="#linearGradient3369"
       id="linearGradient842"
       gradientUnits="userSpaceOnUse"
       x1="7.8691263"
       y1="26"
       x2="165.98279"
       y2="28.474874" />
  </defs>
  <sodipodi:namedview
     pagecolor="#ffffff"
     bordercolor="#666666"
     borderopacity="1"
     objecttolerance="10"
     gridtolerance="10"
     guidetolerance="10"
     inkscape:pageopacity="0"
     inkscape:pageshadow="2"
     inkscape:window-width="1364"
     inkscape:window-height="704"
     id="namedview33"
     showgrid="true"
     inkscape:zoom="2.8284271"
     inkscape:cx="85.361159"
     inkscape:cy="71.809897"
     inkscape:window-x="0"
     inkscape:window-y="0"
     inkscape:window-maximized="0"
     inkscape:current-layer="svg31"
     inkscape:snap-global="true">
    <inkscape:grid
       type="xygrid"
       id="grid844"
       spacingx="4"
       spacingy="4"
       empspacing="1" />
  </sodipodi:namedview>
  <linearGradient
     id="a">
    <stop
       offset="0"
       stop-color="#f9f9fa"
       id="stop2" />
    <stop
       offset="1"
       stop-color="#f9f9fa"
       stop-opacity="0"
       id="stop4" />
  </linearGradient>
  <linearGradient
     id="b"
     gradientUnits="userSpaceOnUse"
     x1="42.276669"
     x2="-13.469376"
     xlink:href="#a"
     y1="50.867565"
     y2="104.97279" />
  <linearGradient
     id="c"
     gradientUnits="userSpaceOnUse"
     x1="-1.817377"
     x2="2.172436"
     xlink:href="#a"
     y1="55.003803"
     y2="116.784" />
  <path
     style="opacity:1;fill:url(#linearGradient1533);fill-opacity:1;stroke:none;stroke-width:4;stroke-linecap:square;stroke-linejoin:bevel;stroke-miterlimit:4;stroke-dasharray:none;stroke-dashoffset:0;stroke-opacity:1"
     d="m 44,7.8671875 c -1.000909,4.403e-4 -1.96765,0.3640959 -2.720703,1.0234375 l -32.0000001,28 C 8.3853617,37.673426 3.8797394,41.921124 3.808616,42.923926 3.6514235,45.140258 9.3738399,44.13152 12,44.132812 h 72 c 1.095994,-2.57e-4 2.147006,-0.435837 2.921875,-1.210937 l 28.000005,-28 C 117.52421,12.318426 115.68104,7.8682132 112,7.8671875 Z M 44,12 h 68 L 84,40 H 12 Z"
     id="path1523"
     inkscape:connector-curvature="0"
     sodipodi:nodetypes="cccsccccccccccc" />
  <path
     sodipodi:nodetypes="ccccc"
     inkscape:connector-curvature="0"
     id="path840"
     d="m 44,12 h 68 L 84,40 H 12 Z"
     style="opacity:1;fill:url(#linearGradient842);fill-opacity:1;stroke:none;stroke-width:4;stroke-linecap:square;stroke-linejoin:bevel;stroke-miterlimit:4;stroke-dasharray:none;stroke-dashoffset:0;stroke-opacity:1" />
  <path
     sodipodi:type="inkscape:offset"
     inkscape:radius="3.9887612"
     inkscape:original="M 116 12 L 84 44 L 84 116 L 116 80 L 116 12 z "
     style="opacity:1;fill:url(#linearGradient1521);fill-opacity:1.0;stroke:none;stroke-width:4;stroke-linecap:round;stroke-linejoin:bevel;stroke-miterlimit:4;stroke-dasharray:none;stroke-dashoffset:0;stroke-opacity:1"
     id="path1511"
     d="m 115.88281,8.0136719 a 3.9891601,3.9891601 0 0 0 -2.70312,1.1660156 L 81.179688,41.179688 A 3.9891601,3.9891601 0 0 0 80.011719,44 v 72 a 3.9891601,3.9891601 0 0 0 6.96875,2.65039 L 118.98047,82.650391 A 3.9891601,3.9891601 0 0 0 119.98828,80 V 12 a 3.9891601,3.9891601 0 0 0 -4.10547,-3.9863281 z" />
  <path
     style="opacity:1;fill:url(#linearGradient1491);fill-opacity:1;stroke:none;stroke-width:4;stroke-linecap:round;stroke-linejoin:bevel;stroke-miterlimit:4;stroke-dasharray:none;stroke-dashoffset:0;stroke-opacity:1"
     d="M 116,12 84,44 v 71.99998 L 116,80 Z"
     id="rect833"
     inkscape:connector-curvature="0"
     sodipodi:nodetypes="ccccc" />
  <path
     sodipodi:type="inkscape:offset"
     inkscape:radius="3.980695"
     inkscape:original="M 8 44 L 8 116 L 80 116 L 80 44 L 8 44 z "
     style="opacity:1;fill:url(#linearGradient1503);fill-opacity:1.0;stroke:none;stroke-width:3.61812878;stroke-linecap:round;stroke-linejoin:bevel;stroke-miterlimit:4;stroke-dasharray:none;stroke-dashoffset:0;stroke-opacity:1"
     id="path1493"
     d="M 8,40.019531 A 3.9810931,3.9810931 0 0 0 4.0195312,44 v 72 A 3.9810931,3.9810931 0 0 0 8,119.98047 H 80 A 3.9810931,3.9810931 0 0 0 83.980469,116 V 44 A 3.9810931,3.9810931 0 0 0 80,40.019531 Z" />
  <path
     inkscape:connector-curvature="0"
     style="opacity:1;fill:url(#linearGradient1483);fill-opacity:1;stroke:none;stroke-width:3.61812878;stroke-linecap:round;stroke-linejoin:bevel;stroke-miterlimit:4;stroke-dasharray:none;stroke-dashoffset:0;stroke-opacity:1"
     d="M 7.9999997,43.999999 H 80.000002 l 0,72.000001 H 8 Z"
     id="rect852"
     sodipodi:nodetypes="ccccc" />
</svg>
